X: 6
T: Acem Seyir
C: Erol Bingöl
O: Turkey
F: http://compmusic.upf.edu/node/140
N: acem--seyir--sofyan--1--erol_bingol
N: makam= acem
N: form= seyir
N: usul= sofyan = 4/4
M: 4/4
L: 1/16
K: C _1/4B   
Q: 1/4=60
%%MIDI tuningsystem comma53
e4 f4 f2a2 g2f2  | f2e4d2 e3d c4  | d2e2 f2g2 a3g f2g2  | \
w:   |   |   | 
e4 f12  | 
w:   | 
g4 a4 a2_b2 a2g2  | a2c'4_ba a8  | g2a_b a2g2 f2e2 d2e2  | \
w:   |   |   | 
d4 c2d2 c4 _2/4B4  | 
w:   | 
c4 d2_7/8e2 g2^f2 e2d2  | d2_7/8e2 d2c2 c2d2 c2_2/4B2  | \
w:   |   | 
A2_2/4B2 c2d2 c2B2 e2dc  | 
w:   | 
c6G2 A2_2/4B2 c4  | d2e2 f2e2 d4 c2_2/4B2  | \
w:   |   | 
c2d2 c2_2/4B2 c4 d2e2  | d2c4_2/4B2 B2A2 c2BA  | 
w:   |   | 
A12 z4  | |


